components/ui-node-icon/src/csvFile/csvFile.large.svg

<svg width="32" height="32" viewBox="0 0 32 32" fill="none" xmlns="http://www.w3.org/2000/svg">
  <path
    d="M8.99902 3.00049C6.78988 3.00049 4.99902 4.79135 4.99902 7.00049V25.0005C4.99902 27.2096 6.78988 29.0005 8.99902 29.0005H22.999C25.2082 29.0005 26.999 27.2096 26.999 25.0005L26.999 9.0005L20.999 3.0005H23.0069C23.0043 3.00049 23.0017 3.00049 22.999 3.00049H8.99902Z"
    fill="var(--tbl--colors--icons--transformation--primary)"
  />
  <path d="M21 7V3L27 9H23C21.8954 9 21 8.10457 21 7Z" fill="white" fill-opacity="0.5"/>

  <path
    d="M13.2567 18.0899C13.238 18.3837 13.1739 18.648 13.0644 18.883C12.9576 19.118 12.8134 19.3182 12.6319 19.4838C12.4503 19.6494 12.234 19.7775 11.983 19.8683C11.732 19.9564 11.4543 20.0005 11.1499 20.0005C10.8054 20.0005 10.4997 19.9377 10.2327 19.8122C9.96565 19.6841 9.74135 19.5065 9.55977 19.2795C9.3782 19.0499 9.23934 18.7749 9.14322 18.4544C9.04709 18.134 8.99902 17.7815 8.99902 17.397V16.612C8.99902 16.2248 9.04976 15.871 9.15123 15.5506C9.25269 15.2301 9.39689 14.9551 9.5838 14.7255C9.77072 14.4958 9.99635 14.3182 10.2607 14.1927C10.5277 14.0646 10.8268 14.0005 11.1579 14.0005C11.4783 14.0005 11.7627 14.0459 12.011 14.1367C12.262 14.2275 12.4757 14.357 12.6519 14.5252C12.8281 14.6934 12.967 14.899 13.0684 15.142C13.1699 15.385 13.234 15.6587 13.2607 15.9631H12.1392C12.1285 15.7895 12.1018 15.6373 12.0591 15.5065C12.019 15.3757 11.959 15.2675 11.8789 15.1821C11.8014 15.0939 11.7026 15.0285 11.5825 14.9858C11.465 14.9404 11.3235 14.9177 11.1579 14.9177C10.9843 14.9177 10.8335 14.9551 10.7053 15.0299C10.5771 15.1046 10.4703 15.2141 10.3849 15.3583C10.3021 15.5025 10.2407 15.6801 10.2006 15.891C10.1606 16.0993 10.1405 16.3369 10.1405 16.604V17.397C10.1405 17.9711 10.2207 18.3957 10.3809 18.6707C10.5437 18.9457 10.8001 19.0833 11.1499 19.0833C11.4436 19.0833 11.6759 19.0058 11.8468 18.851C12.0177 18.6934 12.1125 18.4397 12.1312 18.0899H13.2567Z"
    fill="white"
  />
  <path
    d="M17.1619 18.3943C17.1619 18.2902 17.1432 18.1927 17.1058 18.102C17.0711 18.0112 17.0097 17.9271 16.9216 17.8496C16.8361 17.7695 16.7227 17.6974 16.5811 17.6333C16.4423 17.5666 16.2687 17.5052 16.0604 17.4491C15.8068 17.3797 15.5638 17.2929 15.3315 17.1887C15.1018 17.0846 14.8989 16.9591 14.7227 16.8122C14.5464 16.6654 14.4049 16.4945 14.2981 16.2996C14.1939 16.1046 14.1419 15.8803 14.1419 15.6267C14.1419 15.381 14.1939 15.158 14.2981 14.9578C14.4022 14.7575 14.5464 14.5866 14.7307 14.4451C14.9149 14.3036 15.1325 14.1954 15.3835 14.1206C15.6345 14.0432 15.9069 14.0045 16.2006 14.0045C16.505 14.0045 16.7827 14.0486 17.0337 14.1367C17.2874 14.2248 17.505 14.349 17.6866 14.5092C17.8682 14.6667 18.0097 14.855 18.1112 15.0739C18.2126 15.2929 18.2634 15.5332 18.2634 15.7949H17.1659C17.1606 15.664 17.1365 15.5439 17.0938 15.4344C17.0538 15.3249 16.9923 15.2315 16.9096 15.154C16.8295 15.0739 16.728 15.0125 16.6052 14.9698C16.485 14.9244 16.3435 14.9017 16.1806 14.9017C16.0311 14.9017 15.8976 14.9204 15.7801 14.9578C15.6652 14.9925 15.5678 15.0432 15.4877 15.11C15.4076 15.1741 15.3462 15.2515 15.3034 15.3423C15.2634 15.4304 15.2433 15.5265 15.2433 15.6307C15.2433 15.7401 15.2701 15.8389 15.3235 15.9271C15.3795 16.0152 15.4596 16.0953 15.5638 16.1674C15.6679 16.2368 15.7934 16.3009 15.9403 16.3596C16.0898 16.4184 16.258 16.4731 16.445 16.5239C16.712 16.6013 16.9576 16.6961 17.1819 16.8082C17.4062 16.9204 17.5985 17.0539 17.7587 17.2088C17.9216 17.361 18.0471 17.5359 18.1352 17.7335C18.226 17.9284 18.2714 18.146 18.2714 18.3863C18.2714 18.6427 18.2193 18.871 18.1152 19.0712C18.0137 19.2688 17.8722 19.4371 17.6906 19.5759C17.509 19.7121 17.2927 19.8162 17.0417 19.8883C16.7907 19.9578 16.517 19.9925 16.2207 19.9925C16.0364 19.9925 15.8522 19.9751 15.6679 19.9404C15.4863 19.9084 15.3114 19.8576 15.1432 19.7882C14.9777 19.7188 14.8228 19.632 14.6786 19.5279C14.5344 19.4237 14.4089 19.3022 14.3021 19.1634C14.198 19.0245 14.1152 18.867 14.0538 18.6907C13.995 18.5145 13.9656 18.3196 13.9656 18.106H15.0711C15.0765 18.2822 15.1072 18.4331 15.1632 18.5586C15.2193 18.6841 15.2968 18.7869 15.3956 18.867C15.497 18.9471 15.6172 19.0058 15.756 19.0432C15.8976 19.0806 16.0524 19.0993 16.2207 19.0993C16.3702 19.0993 16.5024 19.0819 16.6172 19.0472C16.7347 19.0125 16.8335 18.9644 16.9136 18.903C16.9937 18.8416 17.0551 18.7682 17.0978 18.6827C17.1405 18.5946 17.1619 18.4985 17.1619 18.3943Z"
    fill="white"
  />
  <path
    d="M20.991 18.2862L22.0925 14.0846H23.3341L21.5678 19.9164H20.4223L18.6599 14.0846H19.9016L20.991 18.2862Z"
    fill="white"
  />
</svg>

<svg xmlns="http://www.w3.org/2000/svg" width="32" height="32" fill="none" viewBox="0 0 32 32">
  <path fill="var(--tbl--colors--icons--transformation--primary)" fill-rule="evenodd" d="M5 7a4 4 0 0 1 4-4h14.008H21l6 6v16a4 4 0 0 1-4 4H9a4 4 0 0 1-4-4V7Zm8.258 11.09a2.191 2.191 0 0 1-.193.793 1.822 1.822 0 0 1-1.081.985 2.502 2.502 0 0 1-.833.132c-.345 0-.65-.063-.917-.188a1.905 1.905 0 0 1-.673-.533 2.448 2.448 0 0 1-.417-.825A3.668 3.668 0 0 1 9 17.396v-.785c0-.387.05-.74.152-1.06.102-.321.246-.596.433-.826a1.93 1.93 0 0 1 .677-.533c.267-.128.566-.192.897-.192.32 0 .605.045.853.136.251.091.465.22.64.389.177.168.316.373.417.617.102.242.166.516.193.82H12.14a1.843 1.843 0 0 0-.08-.456.815.815 0 0 0-.18-.324.696.696 0 0 0-.297-.197 1.179 1.179 0 0 0-.424-.068.882.882 0 0 0-.453.112.901.901 0 0 0-.32.329 1.71 1.71 0 0 0-.184.532c-.04.209-.06.446-.06.713v.793c0 .575.08 1 .24 1.274.163.275.42.413.769.413.294 0 .526-.078.697-.232.17-.158.265-.412.284-.761h1.126Zm3.905.304a.76.76 0 0 0-.056-.292.646.646 0 0 0-.184-.253 1.248 1.248 0 0 0-.34-.216 3.05 3.05 0 0 0-.522-.184 5.02 5.02 0 0 1-.729-.26 2.665 2.665 0 0 1-.608-.377 1.77 1.77 0 0 1-.425-.513 1.406 1.406 0 0 1-.156-.673c0-.245.052-.468.156-.669.104-.2.248-.37.433-.512.184-.142.402-.25.652-.325.252-.077.524-.116.818-.116.304 0 .582.044.833.132.253.088.471.213.653.373a1.666 1.666 0 0 1 .576 1.285h-1.097a1.112 1.112 0 0 0-.072-.36.788.788 0 0 0-.489-.465 1.2 1.2 0 0 0-.424-.068c-.15 0-.283.019-.401.056a.82.82 0 0 0-.292.152.646.646 0 0 0-.165.818.856.856 0 0 0 .24.24c.105.07.23.133.377.192.15.059.318.114.505.164.267.078.513.173.737.285.224.112.416.245.577.4.163.152.288.327.376.525.091.195.136.412.136.653 0 .256-.052.485-.156.685a1.48 1.48 0 0 1-.424.504c-.182.137-.398.24-.65.313-.25.07-.524.104-.82.104a2.98 2.98 0 0 1-1.078-.204 2.329 2.329 0 0 1-.464-.26 1.809 1.809 0 0 1-.377-.365 1.733 1.733 0 0 1-.248-.473 1.843 1.843 0 0 1-.088-.585h1.105c.005.177.036.328.092.453a.82.82 0 0 0 .232.308.99.99 0 0 0 .361.177c.142.037.296.056.465.056.15 0 .281-.018.396-.052a.902.902 0 0 0 .297-.145.63.63 0 0 0 .184-.22.652.652 0 0 0 .064-.288Zm4.93-4.31-1.101 4.202-1.09-4.202h-1.241l1.762 5.832h1.146l1.766-5.832h-1.242Z" clip-rule="evenodd"/>
  <path fill="#fff" fill-opacity=".5" d="M21 7V3l6 6h-4a2 2 0 0 1-2-2Z"/>
</svg>
